X: 1806
T: Pine Mt Lancers Fig 2
B: australian traditional tunes wiki
M:2/4
L:1/16
R: Polka
Q: 1/4=100
K:G
V:1 
"G"d4g3d|dddd g3d|"D7"d3c cBcd|"Em"B6zd|
"G"d4g3d|dddd g3d|"D7"d3c cBcd|"G"B4G3d|
"D7"d3c c2A2|"Em"e3d d2g2|"D7"d3c c2A2|"Em"e3d d2g2|
"D7"d4g3d|"G"dddd g3d|"D7"d3c cBcA|"G"B2d2 g4|]
% abcbook-tune_id 6342d53a7e336b55b25c9e15


% abcbook-boost 0
% abcbook-tablature 
% abcbook-transpose 
% abcbook-lastupdated 1665324385100
% abcbook-soundfonts 
% abcbook-repeats 1
% NFF Book 2018

